images/instagram.svg

<svg width="16" height="17" viewBox="0 0 16 17" fill="none" xmlns="http://www.w3.org/2000/svg">
<path d="M8 10.3569C9.10457 10.3569 10 9.4615 10 8.35693C10 7.25236 9.10457 6.35693 8 6.35693C6.89543 6.35693 6 7.25236 6 8.35693C6 9.4615 6.89543 10.3569 8 10.3569Z" fill="black"/>
<path d="M14.7 1.65693C13.8 0.756934 12.7 0.356934 11.3 0.356934H4.7C1.9 0.356934 0 2.25693 0 5.05693V11.6569C0 13.0569 0.4 14.2569 1.4 15.0569C2.3 15.9569 3.4 16.3569 4.7 16.3569H11.3C12.7 16.3569 13.9 15.9569 14.7 15.0569C15.5 14.1569 16 13.0569 16 11.6569V5.05693C16 3.65693 15.6 2.45693 14.7 1.65693ZM8 12.4569C5.8 12.4569 3.9 10.6569 3.9 8.35693C3.9 6.05693 5.8 4.25693 8 4.25693C10.2 4.25693 12.1 6.05693 12.1 8.35693C12.1 10.6569 10.2 12.4569 8 12.4569ZM12.6 5.05693C11.9 5.05693 11.3 4.55693 11.3 3.75693C11.3 2.95693 11.8 2.45693 12.6 2.45693C13.3 2.45693 13.9 3.05693 13.9 3.75693C13.9 4.45693 13.3 5.05693 12.6 5.05693Z" fill="black"/>
</svg>

<svg width="16" height="17" fill="none" xmlns="http://www.w3.org/2000/svg"><path d="M8 10.36a2 2 0 1 0 0-4 2 2 0 0 0 0 4Z" fill="#000"/><path d="M14.7 1.66c-.9-.9-2-1.3-3.4-1.3H4.7C1.9.36 0 2.26 0 5.06v6.6c0 1.4.4 2.6 1.4 3.4.9.9 2 1.3 3.3 1.3h6.6c1.4 0 2.6-.4 3.4-1.3.8-.9 1.3-2 1.3-3.4v-6.6c0-1.4-.4-2.6-1.3-3.4ZM8 12.46c-2.2 0-4.1-1.8-4.1-4.1s1.9-4.1 4.1-4.1c2.2 0 4.1 1.8 4.1 4.1s-1.9 4.1-4.1 4.1Zm4.6-7.4c-.7 0-1.3-.5-1.3-1.3s.5-1.3 1.3-1.3c.7 0 1.3.6 1.3 1.3 0 .7-.6 1.3-1.3 1.3Z" fill="#000"/></svg>
